src/24/pause-24.svg

<?xml version="1.0" encoding="iso-8859-1"?>
<!-- Generator: Adobe Illustrator 19.1.0, SVG Export Plug-In . SVG Version: 6.00 Build 0)  -->
<!DOCTYPE svg PUBLIC "-//W3C//DTD SVG 1.1 Tiny//EN" "http://www.w3.org/Graphics/SVG/1.1/DTD/svg11-tiny.dtd">
<svg version="1.1" baseProfile="tiny" id="Layer_1" xmlns="http://www.w3.org/2000/svg" xmlns:xlink="http://www.w3.org/1999/xlink"
	 x="0px" y="0px" viewBox="0 0 24 24" xml:space="preserve">
<g id="XMLID_761_">
	<path d="M10.5,24h-6C4.224,24,4,23.776,4,23.5v-23C4,0.224,4.224,0,4.5,0h6C10.776,0,11,0.224,11,0.5v23
		C11,23.776,10.776,24,10.5,24z M5,23h5V1H5V23z"/>
	<path d="M20.5,24h-6c-0.276,0-0.5-0.224-0.5-0.5v-23C14,0.224,14.224,0,14.5,0h6C20.776,0,21,0.224,21,0.5v23
		C21,23.776,20.776,24,20.5,24z M15,23h5V1h-5V23z"/>
</g>
</svg>

<svg baseProfile="tiny" xmlns="http://www.w3.org/2000/svg" viewBox="0 0 24 24"><path d="M10.5 24h-6a.5.5 0 0 1-.5-.5V.5a.5.5 0 0 1 .5-.5h6a.5.5 0 0 1 .5.5v23a.5.5 0 0 1-.5.5zM5 23h5V1H5v22zM20.5 24h-6a.5.5 0 0 1-.5-.5V.5a.5.5 0 0 1 .5-.5h6a.5.5 0 0 1 .5.5v23a.5.5 0 0 1-.5.5zM15 23h5V1h-5v22z"/></svg>
